material/.icons/material/keyboard-f8.svg

<svg xmlns="http://www.w3.org/2000/svg" viewBox="0 0 24 24"><path d="M5 7h6v2H7v2h3v2H7v4H5V7m10 6v2h2v-2h-2m0-4v2h2V9h-2m0 8a2 2 0 01-2-2v-1.5c0-.83.67-1.5 1.5-1.5-.83 0-1.5-.67-1.5-1.5V9c0-1.1.9-2 2-2h2a2 2 0 012 2v1.5c0 .83-.67 1.5-1.5 1.5.83 0 1.5.67 1.5 1.5V15c0 1.11-.89 2-2 2h-2z"/></svg>

<?xml version="1.0" encoding="UTF-8"?><!DOCTYPE svg PUBLIC "-//W3C//DTD SVG 1.1//EN" "http://www.w3.org/Graphics/SVG/1.1/DTD/svg11.dtd"><svg xmlns="http://www.w3.org/2000/svg" xmlns:xlink="http://www.w3.org/1999/xlink" version="1.1" id="mdi-keyboard-f8" width="24" height="24" viewBox="0 0 24 24"><path d="M5 7H11V9H7V11H10V13H7V17H5V7M15 13V15H17V13H15M15 9V11H17V9H15M15 17C13.9 17 13 16.11 13 15V13.5C13 12.67 13.67 12 14.5 12C13.67 12 13 11.33 13 10.5V9C13 7.9 13.9 7 15 7H17C18.1 7 19 7.89 19 9V10.5C19 11.33 18.33 12 17.5 12C18.33 12 19 12.67 19 13.5V15C19 16.11 18.11 17 17 17H15Z" /></svg>
